X:18005
T:Unknown Jig # 2
S:irtrad-l, 5/98, P. Varlet
M:6/8
L:1/8
Q:130
N:as played by Micmac Indian, Lee Cremo
R:jig
K:A
a |: c'2 a e2 c | A3 AzC | A,CE Aca | g3 gag |
f2 d B2 A | G3 G3 |1 GFE GFE | C2z a2 b :|2 EFE EFG | A3 A2 ||
C/2B,/2 |: A,2 C E2 A | c3 c2 e | cAe cAc | B3 BGF |
E2 G B2 c | d3 fa2 | gfe dcB |1 c3 c2z :|2 A3 A3 ||
